X: 21
T:The Minstrel Boy
% Nottingham Music Database
S:Lesley Dolman, via EF
M:4/4
L:1/4
K:G
D|"G"G3"D7"A|"G"cB AG|"G"B2 "D/f+"d2|"Em"g2 "D"fg|"C"e2 "G/b"d2|"G"Bc dB|\
"D7"A4|
"G"G2 D2|"G"G3"D7"A|"G"cB AG|"G"B2 "D/f+"d2|"Em"g2 "D"fg|"C"e2 "G/b"d2|\
"G"Bc dB|"D7"A4|
"G"G2 d2|"Em"g2 "B7"f2|"Em"e2 "A7"fg|"D"f2 "A7"e2|"D"d3d|"Em"e3B|"Bm"B2 d2|\
"Em"e2 "D7"f2|"G"g3g|
"G"G3"D7"A|"G"cB AG|"G"B2 "D/f+"d2|"Em"g2 "D"fg|"C"e2 "G/b"d2|"G"Bc dB|"D7"A4|\
G3||<end>
<start>
